!!!COM:	Martini, Johannes
!!!CDT:	~1440///-~1497//
!!!OTL:	Memento domine David
!!!AGN:	Motet
!!!SCT:	Mar2074
!!!SCA:	Mar2074
!!!voices:	2
**kern	**kern
*staff2	*staff1
*Ivox	*Ivox
*I"Tenor	*I"Superius
*I'T	*I'S
*>[A,B,C,D,E,F,G,H,I,J,K,L,M,N,O,P,Q,R,S,T,U]	*>[A,B,C,D,E,F,G,H,I,J,K,L,M,N,O,P,Q,R,S,T,U]
*>A	*>A
*clefGv2	*clefG2
*k[]	*k[]
*M2/1	*M2/1
*met(C)	*met(C)
!!section: Et omnis mansuetudinis
!!!OMD: Et omnis mansuetudinis
=1-	=1-
!!LO:TX:Z=8:t=Choir 1
1A	1a
1c	1a
=2	=2
1c	1a
1c	1a
=3	=3
2c\	2a/
2c\	2a/
1c	1a
=4	=4
2A/	2f/
2B\	2g/
1c	2a/
.	[2g/
=5	=5
2B-i\	2g/]
2A/	1f
1G	.
.	2e/
=6	=6
0Fl	0fl
=7||	=7||
*>B	*>B
!!LO:TX:Z=8:t=Choir 2
!!section: Sicut juravit Domino
!!!OMD: Sicut juravit Domino
1A	1a
2c\	2a/
2c\	2a/
=8	=8
2c\	2a/
2c\	2a/
2c\	2a/
2c\	2a/
=9	=9
1A	1a
1r	1r
=10	=10
1c	1a
2c\	2a/
2A/	2f/
=11	=11
2B\	2g/
1c	1a
2A/	[2f/
=12	=12
1G	2f/]
.	2e/
1Fl	1fl
=13||	=13||
*>C	*>C
!!LO:TX:Z=8:t=Choir 1
!!section: Si introiero
!!!OMD: Si introiero
1c	1a
2c\	2a/
2c\	2a/
=14	=14
2c\	2a/
2c\	2a/
1c	1a
=15	=15
1c	1a
2c\	2a/
2c\	2a/
=16	=16
2B\	2g/
2A/	2f/
2B\	2g/
[2c\	[2a/
=17	=17
2c\]	2a/]
1d	1b-i
2c\	[2a/
=18	=18
1B-i	2a/]
.	2g/
1A	1a
=19	=19
1r	1r
2c\	2a/
2c\	2a/
=20	=20
2c\	2a/
2c\	2a/
1c	1a
=21	=21
2A/	2f/
2B\	2g/
1c	2a/
.	[2g/
=22	=22
2B-i\	2g/]
2A/	1f
1G	.
.	2e/
=23	=23
0Fl	0fl
=24||	=24||
*>D	*>D
!!LO:TX:Z=8:t=Choir 2
!!section: Si dedero
!!!OMD: Si dedero
1A	1a
2c\	2a/
2c\	2a/
=25	=25
1c	1a
2c\	2a/
2c\	2a/
=26	=26
2c\	2a/
2c\	2a/
2c\	2a/
2c\	2a/
=27	=27
1A	1a
1r	1r
=28	=28
1c	1a
2c\	2a/
2c\	2a/
=29	=29
2c\	2a/
2c\	2a/
1c	1a
=30	=30
2A/	2f/
2B\	2g/
1c	2a/
.	[2g/
=31	=31
2B-i\	4g/]
.	4f/
2A/	1f
1G	.
.	2e/
=32	=32
0Fl	0fl
=33||	=33||
*>E	*>E
!!section: Et requiem temporibus
!!!OMD: Et requiem temporibus
!!LO:TX:Z=8:t=Choir 1
1c	1a
2c\	2a/
2c\	2a/
=34	=34
1c	1a
2c\	2a/
2c\	2a/
=35	=35
2c\	2a/
2c\	2a/
1c	1a
=36	=36
1B	1g
1A	2r
.	2a/
=37	=37
2c\	2a/
2c\	2a/
2c\	2a/
2c\	2a/
=38	=38
1c	1a
2c\	2a/
[2d\	[2b-i\
=39	=39
2d\]	2b-\]
2c\	1a
1B-i	.
.	2g/
=40	=40
1A	1a
1r	1r
=41	=41
2c\	2a/
2c\	2a/
2c\	2a/
2c\	2a/
=42	=42
1c	1a
2A/	2f/
2G/	[2g/
=43	=43
2B-i\	2g/]
2A/	1f
1G	.
.	2e/
=44	=44
0Fl	0fl
=45||	=45||
*>F	*>F
!!LO:TX:Z=8:t=Choir 2
!!section: Ecce audivimus
!!!OMD: Ecce audivimus
1A	1a
2c\	2a/
2c\	2a/
=46	=46
2c\	2a/
2c\	2a/
2c\	2a/
2c\	2a/
=47	=47
1c	1a
2c\	2a/
[2d\	[2b-i\
=48	=48
4d\]	4b-\]
4c\	4a/
4B-i\	4g/
4A/	4f/
1B-i	1g
=49	=49
1A	1a
1r	1r
=50	=50
2c\	2a/
2c\	2a/
2c\	2a/
2c\	2a/
=51	=51
1c	1a
1c	1a
=52	=52
2A/	2f/
2G/	2e/
2A/	2f/
[2B-i\	[2g/
=53	=53
4B-\]	4g/]
4A/	4f/
4G/	4e/
4F/	4d/
1G	1e
=54	=54
0Fl	0fl
=55||	=55||
*>G	*>G
!!section: Introibimus in tabernaculum
!!!OMD: Introibimus in tabernaculum
!!LO:TX:Z=8:t=Choir 1
2c\	2a/
2c\	2a/
2c\	2a/
2c\	2a/
=56	=56
1c	1a
2B\	2g/
2A/	2f/
=57	=57
2G/	2e/
2A/	2f/
2B\	2g/
[2c\	[2a/
=58	=58
2c\]	2a/]
4B\	4g/
4A/	4f/
1B	1g
=59	=59
1A	1a
1r	1r
=60	=60
2c\	2a/
2c\	2a/
2c\	2a/
2c\	2a/
=61	=61
1c	1a
1c	1a
=62	=62
2B\	2g/
2A/	2f/
1B	1g
=63	=63
2c\	2a/
2c\	2a/
1c	1a
=64	=64
2A/	2f/
1B-i	1g
2A/	[2f/
=65	=65
1G	2f/]
.	2e/
1Fl	1fl
=66||	=66||
*>H	*>H
!!section: Surge, Domine
!!!OMD: Surge, Domine
!!LO:TX:Z=8:t=Choir 2
2A/	2a/
2A/	2a/
2c\	2a/
2c\	2a/
=67	=67
1c	1a
1B	1g
=68	=68
2A/	2f/
2B\	2g/
2A/	2a/
[2d\	[2b-i\
=69	=69
2d\]	2b-\]
2c\	1a
1B-i	.
.	2g/
=70	=70
1A	1a
1r	1r
=71	=71
2c\	2a/
2c\	2a/
1c	1a
=72	=72
1c	1a
2B\	2g/
2A/	2f/
=73	=73
2G/	2e/
1A	1f
2B\	2g/
=74	=74
1c	2a/
.	1g
2B-i\	.
2A/	[2f/
=75	=75
1G	2f/]
.	2e/
1Fl	1fl
=76||	=76||
*>I	*>I
!!section: Sacerdotes tui
!!!OMD: Sacerdotes tui
!!LO:TX:Z=8:t=Choir 1
1A	1a
2c\	2a/
2c\	2a/
=77	=77
2c\	2a/
2c\	2a/
1c	1a
=78	=78
1G	1g
2A/	2f/
2B\	2g/
=79	=79
2c\	2a/
1d	1b-i
2c\	[2a/
=80	=80
1B-i	2a/]
.	2g/
1A	1a
=81	=81
1r	1r
1c	1a
=82	=82
2c\	2a/
2c\	2a/
1c	1a
=83	=83
2A/	2f/
2G/	1g
2B-i\	.
2A/	[2f/
=84	=84
1G	2f/]
.	2e/
1Fl	1fl
=85||	=85||
*>J	*>J
!!section: Propter David
!!!OMD: Propter David
!!LO:TX:Z=8:t=Choir 2
2c\	2a/
2c\	2a/
1c	1a
=86	=86
1B	1g
1A	1f
=87	=87
2.G/	2.e/
4A/	4f/
2B-i\	2g/
2A/	[2a/
=88	=88
1B-i	2a/]
.	2g/
1A	1a
=89	=89
1r	1r
2c\	2a/
2c\	2a/
=90	=90
2c\	1a
2c\	.
2A/	2f/
2B\	2g/
=91	=91
1c	2a/
.	1g
2B-i\	.
2A/	2f/
=92	=92
1G	2d/
.	2e/
1Fl	1fl
=93||	=93||
*>K	*>K
!!LO:TX:Z=8:t=Choir 1
!!section: Juravit Dominus
!!!OMD: Juravit Dominus
1c	1a
2c\	2a/
2c\	2a/
=94	=94
2c\	2a/
2c\	2a/
1c	1a
=95	=95
2c\	2a/
2c\	2a/
1c	1a
=96	=96
1B	1g
1A	2r
.	2a/
=97	=97
2c\	2a/
2c\	2a/
2B\	2g/
2c\	2a/
=98	=98
2d\	2b-i\
2A/	1a
1B-i	.
.	2g/
=99	=99
1A	1a
1r	1r
=100	=100
1c	1a
2c\	2a/
2c\	2a/
=101	=101
2c\	2a/
2c\	2a/
1c	1a
=102	=102
1A	1a
2A/	2f/
2B\	2g/
=103	=103
2c\	2a/
2B\	2g/
2A/	2f/
2G/	[2g/
=104	=104
2B-i\	2g/]
2A/	1f
1G	.
.	2e/
=105	=105
0Fl	0fl
=106||	=106||
*>L	*>L
!!section: Si custodierint
!!!OMD: Si custodierint
!!LO:TX:Z=8:t=Choir 2
1A	1a
2c\	2a/
2c\	2a/
=107	=107
2c\	2a/
2c\	2a/
1c	1a
=108	=108
2c\	2a/
2c\	2a/
1c	1a
=109	=109
1B	1g
1A	1f
=110	=110
2G/	2e/
2A/	2f/
2B\	2g/
[2c\	[2a/
=111	=111
2c\]	2a/]
4B-i\	4g/
4A/	4f/
1B-i	1g
=112	=112
1A	1a
1r	1r
=113	=113
1c	1a
2c\	2a/
2c\	2a/
=114	=114
2c\	2a/
2c\	2a/
2c\	2a/
2c\	2a/
=115	=115
1c	1a
2A/	2f/
2B\	2g/
=116	=116
1c	2a/
.	1g
2B-i\	.
2A/	[2f/
=117	=117
1G	2f/]
.	2e/
1Fl	1fl
=118||	=118||
*>M	*>M
!!section: Et filiii
!!!OMD: Et filiii
!!LO:TX:Z=8:t=Choir 1
1c	1a
2c\	2a/
2c\	2a/
=119	=119
2c\	2a/
2c\	2a/
1c	1a
=120	=120
2A/	1g
2B-i\	.
2A/	2f/
[2d\	[2b-i\
=121	=121
2d\]	4b-\]
.	4a/
2c\	1a
1B-i	.
.	2g/
=122	=122
1A	1a
1r	1r
=123	=123
2c\	2a/
2c\	2a/
1c	1a
=124	=124
2A/	2f/
2B\	2g/
2c\	2a/
2A/	[2f/
=125	=125
1G	2f/]
.	2e/
1Fl	1fl
=126||	=126||
*>N	*>N
!!section: Quoniam elegit
!!!OMD: Quoniam elegit
!!LO:TX:Z=8:t=Choir 2
1c	1a
2c\	2a/
2c\	2a/
=127	=127
2c\	2a/
2c\	2a/
1c	1a
=128	=128
1B	1g
2A/	2f/
[2d\	[2b-i\
=129	=129
2d\]	2b-\]
2c\	1a
1B-i	.
.	2g/
=130	=130
1A	1a
1r	1r
=131	=131
2c\	2a/
2c\	2a/
2c\	2a/
2c\	2a/
=132	=132
1c	1a
1B	1g
=133	=133
2A/	2f/
2B\	2g/
2c\	2a/
2G/	2g/
=134	=134
2A/	2f/
1B-i	1g
2A/	[2f/
=135	=135
1G	2f/]
.	2e/
1Fl	1fl
=136||	=136||
*>O	*>O
!!section: Hec requies mea
!!!OMD: Hec requies mea
!!LO:TX:Z=8:t=Choir 1
1c	1a
2c\	2a/
2c\	2a/
=137	=137
2c\	2a/
2c\	2a/
1c	1a
=138	=138
2A/	2f/
2B\	2g/
2A/	2a/
[2d\	[2b-i\
=139	=139
2d\]	2b-\]
2c\	1a
1B-i	.
.	2g/
=140	=140
1A	1a
1r	1r
=141	=141
1c	1a
2c\	2a/
2c\	2a/
=142	=142
1c	1a
1c	1a
=143	=143
1B	1g
2A/	2f/
2B\	2g/
=144	=144
1c	2a/
.	1g
2B-i\	.
2A/	[2f/
=145	=145
1G	2f/]
.	2e/
1Fl	1fl
=146||	=146||
*>P	*>P
!!section: Viduam ejus
!!!OMD: Viduam ejus
!!LO:TX:Z=8:t=Choir 2
2c\	2a/
2c\	2a/
2c\	2a/
2c\	2a/
=147	=147
1c	1a
2B\	2g/
2A/	2f/
=148	=148
2G/	2e/
2A/	2f/
2B\	2g/
[2c\	[2a/
=149	=149
2c\]	2a/]
4B\	4g/
4A/	4f/
1B	1g
=150	=150
1A	1a
1r	1r
=151	=151
2c\	2a/
2c\	2a/
2c\	2a/
2c\	2a/
=152	=152
1c	1a
2A/	2f/
2B\	2g/
=153	=153
1c	2a/
.	1g
2B-i\	.
2A/	[2f/
=154	=154
1G	2f/]
.	2e/
1Fl	1fl
=155||	=155||
*>Q	*>Q
!!section: Sacerdotes ejus
!!!OMD: Sacerdotes ejus
!!LO:TX:Z=8:t=Choir 1
1c	1a
2c\	2a/
2c\	2a/
=156	=156
2c\	2a/
2c\	2a/
1c	1a
=157	=157
2c\	2a/
2B\	2g/
2A/	2f/
[2d\	[2b-i\
=158	=158
2d\]	4b-\]
.	4a/
2c\	1a
1B-i	.
.	2g/
=159	=159
1A	1a
1r	1r
=160	=160
1c	1a
2B\	2g/
2A/	2f/
=161	=161
1B	1g
1A	1a
=162	=162
1c	1a
2c\	2a/
2c\	2a/
=163	=163
2c\	2a/
2c\	2a/
1c	1a
=164	=164
2A/	2f/
2G/	1g
2B-i\	.
2A/	[2f/
=165	=165
1G	2f/]
.	2e/
1Fl	1fl
=166||	=166||
*>R	*>R
!!section: Illuc producam
!!!OMD: Illuc producam
!!LO:TX:Z=8:t=Choir 2
2c\	2a/
2c\	2a/
2c\	2a/
2c\	2a/
=167	=167
1c	1a
1B	1g
=168	=168
2c\	2a/
1d	1b-i
2c\	[2a/
=169	=169
1B-i	2a/]
.	2g/
1A	1a
=170	=170
1r	1r
1c	1a
=171	=171
2c\	2a/
2c\	2a/
2c\	2a/
2c\	2a/
=172	=172
1c	1a
2A/	2f/
2G/	[2g/
=173	=173
2B-i\	2g/]
2A/	1f
1G	.
.	2e/
=174	=174
0Fl	0fl
=175||	=175||
*>S	*>S
!!section: Inimicos ejus
!!!OMD: Inimicos ejus
!!LO:TX:Z=8:t=Choir 1
1A	1a
2c\	2a/
2c\	2a/
=176	=176
2c\	2a/
2c\	2a/
1c	1a
=177	=177
2c\	2a/
2B\	2g/
2A/	2f/
2B\	2g/
=178	=178
2c\	2a/
1d	1b-i
2c\	[2a/
=179	=179
1B-i	2a/]
.	2g/
1A	1a
=180	=180
1r	1r
2c\	2a/
2c\	2a/
=181	=181
2c\	2a/
2c\	2a/
1c	1a
=182	=182
1c	1a
2B\	2g/
2A/	2f/
=183	=183
1B	1g
1A	1a
=184	=184
1c	2r
.	2a/
2c\	2a/
2B\	2g/
=185	=185
2G/	2e/
1A	1f
[2B-i\	[2g/
=186	=186
2B-\]	4g/]
.	4f/
2A/	4e/
.	4d/
1G	1e
=187	=187
0Fl	0fl
=188||	=188||
*>T	*>T
!!LO:TX:Z=8:t=Choir 2
!!section: Gloria Patri
!!!OMD: Gloria Patri
2c\	2a/
2c\	2a/
2c\	2a/
2c\	2a/
=189	=189
1c	1a
1B	1g
=190	=190
2c\	2a/
1d	1b-i
2c\	[2a/
=191	=191
1B-i	2a/]
.	2g/
1A	1a
=192	=192
1r	1r
1c	1a
=193	=193
2c\	2a/
2c\	2a/
2c\	2a/
2c\	2a/
=194	=194
1c	1a
2A/	2f/
2G/	[2g/
=195	=195
2B-i\	2g/]
2A/	1f
1G	.
.	2e/
=196	=196
0Fl	0fl
=197||	=197||
*>U	*>U
!!section: Sicut erat
!!!OMD: Sicut erat
!!LO:TX:Z=8:t=Choir 1
1A	1a
1c	1a
=198	=198
2c\	2a/
2c\	2a/
2c\	2a/
2c\	2a/
=199	=199
2c\	2a/
2c\	2a/
1c	1a
=200	=200
1B	1g
2A/	2f/
[2d\	[2b-i\
=201	=201
2d\]	2b-\]
2c\	1a
1B-i	.
.	2g/
=202	=202
1A	1a
1r	1r
=203	=203
2c\	2a/
2c\	2a/
2c\	2a/
2c\	2a/
=204	=204
1c	1a
2B-i\	2g/
2G/	2e/
=205	=205
2A/	2f/
2.B-i\	2.g/
4A/	4f/
4G/	4e/
4F/	4d/
=206	=206
1G	1e
1Fl	1fl
==	==
*-	*-
!!!RDF**kern: l=long note in original notation
!!!RDF**kern: i=editorial accidental
!!!ENC:	Chris Gage 02-12-2014
!!!END:	2014/10/09/
!!!EED:	Jesse Rodin
!!!EEV:	2014/10/18/
!!!ONB:	Translated from MusicXML and edited on 2014/10/18/ by Craig Sapp
!!muse2ps: C^@{COM}^i2I150v85,150c240
